X: 20352
T: John Campbell Bevan
R: hornpipe
M: 4/4
K: Fmajor
AB|c3B AFAc|d2d2dcAc|f2fg afcA|B2g2g2AB|
c3B AFAc|dcBd cBAc|fefg afcA|Bgcef2fg|
a3g fefc|BFBd cBAc|f3g afcA|Bggag2fg|
a3g fefc|BFBd cBAc|fefg afcA|Bgcef2||

